X:1
T: Miss Scot
C:
R:Strathspey
Q: 128
K:C
M:4/4
L:1/16
|:G2|E3C E3G c3e c3G|E3G c3e dD3 D3G|E3C E3G c3G c3e|g3c f3d ec3 c2G2|
E3C E3G c3e c3G|E3G c3e dD3 D3G|E3C E3G c3G c3e|g3c f3d ec3 c2a2|
g3c e3c c3g e3g|a3d f3d B3a f3a|g3c e3c c3g e3g|d3c B3A Gc3 c3a|
g3c e3c c3g e3g|a3d f3d B3a f3a|g3e f3d e3c d3A|G3g d3B ec3 c2:|
